!!!OTL: Fang niu diao
!!!ARE: Asia, China,ÿTaiwan
!! IV, 622
!!!SCT: C1696
!!!YEM: Copyright 1995, estate of Helmut Schaffrath.
**kern
*ICvox
*Ivox
*M2/4
*k[]
*C:
{8c
16c
16d
4e
=1
8g
16e
16g
4a}
=2
{8cc
16a
16cc
8a
8g
=3
8.g
16e
4g}
=4
{8a
16g
16a
8g
8e
=5
8d
16d
16e
4d}
=6
{8c
16c
16d
4e
=7
8.g
16e
8e
8g
=8
2a}
=9
{8.cc
16dd
4ee
=10
16dd
16ee
16dd
16cc
8a
8g
=11
8e
8g
8cc
8a
=12
2g}
==
!!!AGN: Shange, Fangmu shange
!!!AMT: simple duple
!!!AIN: vox
!!!EED: Helmut Schaffrath
!!!EEV: 1.0
*-
